X: 1
T: Brenda Stubbert's
C: Jerry Holland
I: RJ R-121 A Dor reel
M: C|
R: Reel
K: ADor
"^A"[|] B |\
"Am"A/A/A BA GAAB | A/A/A B[dA] edd \
[1,3 e | "G"G/G/G BA BGGB | "F"c2BA "G"BGG :|\
[2,4 a | "G"gedB GABd | e2dB "Am"eAA :|
"^B"|:: B |\
"Am"A/A/A a2 A/A/A g2 | Aage age \
[1,3 g | "G"G/G/G BA BGGB | "F"c2BA "G"BGG :|\
[2   a | "G"gedB GABd | e2dB "Am"eAA :|
"^B4"[|]\
[4   B | "Am"A/A/A BA GAAB | A/A/A B[dA] edda \
       | "G"gedB GABd | e2dB "Am"eAA |]
%%text Occasionally play the B part down an octave.


